!!!!SEGMENT: Distler_Jahrkreis_16_Also-hat-Gott-die-Welt-geliebt.krn
!!!COM: Distler, Hugo
!!!CDT: 1908-1942
!!!OPR@@DE: Der Jahrkreis
!!!OPR@EN: The Year Cycle
!!!OTL@@DE: Also hat Gott die Welt geliebet
!!!OTL@EN: God so loved the world
!!!OPS: 5
!!!ONM: 16
**kern	**text	**kern	**text	**kern	**text
*part3	*part3	*part2	*part2	*part1	*part1
*staff3	*staff3	*staff2	*staff2	*staff1	*staff1
*Ibass	*	*Ialto	*	*Isoprn	*
*clefF4	*	*clefG2	*	*clefG2	*
*k[]	*	*k[]	*	*k[]	*
*MM120	*	*MM120	*	*MM120	*
*M4/4	*	*M4/4	*	*M4/4	*
=1	=1	=1	=1	=1	=1
1r	.	2r	.	2d	Al-
.	.	2G	Al-	4d	so
.	.	.	.	4d	hat
=2	=2	=2	=2	=2	=2
2r	.	4G	so	4d	Gott
.	.	4G	hat	4d	die
2C	Al-	4e-	Gott	2d	Welt
.	.	4d	die	.	.
=3	=3	=3	=3	=3	=3
4C	so	4g	Welt	4d	ge-
4C	hat	4g	ge-	(2e-	lie-
4A-	Gott	(4.g	lie-	.	.
4A-	die	.	.	[4d	.
.	.	8fL	.	.	.
=4	=4	=4	=4	=4	=4
4G	Welt	8g	.	8dL]	.
.	.	8b-	.	8f	.
*^	*	*	*	*	*
4c	4c	ge-	8g	.	8g	.
.	.	.	8fJ	.	8b-J	.
2c	2c	lie-	2a)	.	2cc)	.
!!LO:LB:g=original
=5	=5	=5	=5	=5	=5	=5
*M5/4	*M5/4	*	*M5/4	*	*M5/4	*
1d	1G	bet,	4b,	bet,	4g,	bet,
.	.	.	4.b-	dass	4.dd	dass
.	.	.	8b-	er	8dd	er
.	.	.	4b-	sei-	4dd	sei-
*v	*v	*	*	*	*	*
4r	.	4b-	nen	4dd	nen
=6	=6	=6	=6	=6	=6
*M4/4	*	*M4/4	*	*M4/4	*
1r	.	(4.a-	ein-	(4.ee-	ein-
.	.	8ccL	.	8ffL	.
.	.	8g,	.	8dd,	.
.	.	8g	.	8dd	.
.	.	8a-	.	8ee-	.
.	.	8b-J	.	8ddJ	.
=7	=7	=7	=7	=7	=7
*M7/4	*	*M7/4	*	*M7/4	*
1r	.	4cc)	.	2ff	.
.	.	4cc	ge-	.	.
.	.	4.b-	bor-	4.ee-)	.
.	.	8g	nen	8dd	ge-
2.r	.	(4.a-	Sohn	8cc	bor-
.	.	.	.	8b-	nen
.	.	.	.	2cc	Sohn
.	.	8g	.	.	.
.	.	4f)	.	.	.
!!LO:LB:g=original
=8	=8	=8	=8	=8	=8
*M2/4	*	*M2/4	*	*M2/4	*
4c	auf	2g,	gab,	2cc	gab,
4c	dass	.	.	.	.
=9	=9	=9	=9	=9	=9
4A-	al-	4c	auf	2r	.
8A-	le,	4c	dass	.	.
8A-	die	.	.	.	.
=10	=10	=10	=10	=10	=10
4A-	an	4B-	al-	4e-	auf
4A-	ihn	8B-	le,	4e-	dass
.	.	8B-	die	.	.
=11	=11	=11	=11	=11	=11
[2E-	glau-	4B-	an	4g-	al-
.	.	[4B-	ihn	8g-	le,
.	.	.	.	8g-	die
=12	=12	=12	=12	=12	=12
2E-]	.	4B-]	.	8g-	an
.	.	.	.	8e-	ihn
.	.	4c	glau-	4g-	glau-
!!LO:LB:g=original
=13	=13	=13	=13	=13	=13
*M4/4	*	*M4/4	*	*M4/4	*
4B-,	ben,	4d-,	ben,	4f,	ben,
(4.F	nicht	(4.c	nicht	(4.f	nicht
8E-L	.	8d-L	.	8g-L	.
8D-	.	8f	.	8b-	.
8E-J	.	8d-J	.	8g-J	.
=14	=14	=14	=14	=14	=14
4.F,	.	4.c,	.	4.f,	.
8E-L	.	8d-L	.	8g-L	.
8D-	.	8f	.	8b-	.
8C	.	8g	.	8cc	.
8D-	.	8f	.	8b-	.
8E-	.	8e-	.	8a-	.
=15	=15	=15	=15	=15	=15
8FJ)	.	8cJ)	.	8fJ)	.
8F	ver-	8B-	ver-	8e-	ver-
8F	lo-	8c	lo-	8f	lo-
8F	ren	8B-	ren	8f	ren
2F	ge-	2A-	ge-	2f	ge-
=16	=16	=16	=16	=16	=16
1C	hen,	1G	hen,	4e,	hen
.	.	.	.	4g	son-
.	.	.	.	4g	dern
.	.	.	.	4g	das
!!LO:LB:g=original
=17	=17	=17	=17	=17	=17
1r	.	4r	.	(8aL	e-
.	.	.	.	8gJ	.
.	.	4d	son-	4.b-)	.
.	.	4d	dern	.	.
.	.	.	.	8b-	wi-
.	.	4d	das	4a	ge
=18	=18	=18	=18	=18	=18
4r	.	(8e-L	e-	2g	Le-
.	.	8dJ	.	.	.
4D	son-	4.f)	.	.	.
4D	dern	.	.	4a,	ben,
.	.	8f	wi-	.	.
4D	das	8e,	ge,	4a	son-
.	.	8e	das	.	.
=19	=19	=19	=19	=19	=19
(8E-L	e-	(8gL	e-	4a	dern
8DJ	.	8fJ	.	.	.
4.F)	.	4.a)	.	4a	das
.	.	.	.	(8b-L	e-
8F	wi-	8a	wi-	8aJ	.
8E-,	ge,	8g,	ge,	[4cc	.
8E-	das	8g	das	.	.
!!LO:LB:g=original
=20	=20	=20	=20	=20	=20
(8FL	e-	(8aL	e-	8cc])	.
8E-J	.	8gJ	.	8cc	wi-
4.G)	.	4.b-)	.	8b-,	ge,
.	.	.	.	8b-	das
.	.	.	.	(8ddL	e-
8G	wi-	8b-	wi-	8ccJ	.
4F	ge	4a	ge	[4ee-	.
=21	=21	=21	=21	=21	=21
2E-	Le-	2g	Le-	8ee-])	.
.	.	.	.	8ee-	wi-
.	.	.	.	4dd	ge
2F	ben,	4a,	ben,	4cc	Le-
.	.	4g	son-	4cc	ben
=22	=22	=22	=22	=22	=22
1r	.	4g	dern	2b-	ha-
.	.	4g	das	.	.
.	.	(8aL	e-	4cc,	ben,
.	.	8gJ	.	.	.
.	.	[4b-	.	4cc	son-
=23	=23	=23	=23	=23	=23
1r	.	8b-])	.	4cc	dern
.	.	8b-	wi-	.	.
.	.	4a	ge	4cc	das
.	.	2g	Le-	(8ddL	e-
.	.	.	.	8ccJ	.
.	.	.	.	[4ee-	.
!!LO:LB:g=original
=24	=24	=24	=24	=24	=24
1r	.	8g,	ben,	8ee-])	.
.	.	8g	das	8ee-	wi-
.	.	(8aL	e-	8dd,	ge,
.	.	8gJ	.	8dd	das
.	.	4.b-)	.	4.ee-	e-
.	.	8b-	wi-	8ee-	wi-
=25	=25	=25	=25	=25	=25
4r	.	8a,	ge,	8dd,	ge,
.	.	8a	das	8dd	das
4G	son-	4.cc	e-	2ee-	e-
4G	dern	.	.	.	.
.	.	8cc	wi-	.	.
4G	das	4b-	ge	4dd	wi-
=26	=26	=26	=26	=26	=26
(8AL	e-	(4.a	Le-	4cc	ge
8GJ	.	.	.	.	.
4.B-)	.	.	.	2dd	Le-
.	.	8g	.	.	.
.	.	4f	.	.	.
8B-	wi-	.	.	.	.
4A	ge	[4g	.	4cc	ben
=27	=27	=27	=27	=27	=27
4G	Le-	4g])	.	1b-	ha-
4F	ben	4d	ben	.	.
2G	ha-	2e	ha-	.	.
!!LO:LB:g=original
=28	=28	=28	=28	=28	=28
*M1/4	*	*M1/4	*	*M1/4	*
4D,	ben.	4f#,	ben.	4a,	ben.
=29	=29	=29	=29	=29	=29
*M3/4	*	*M3/4	*	*M3/4	*
2.G	A-	2g	A-	2b	A-
.	.	4a,	men,	4dd,	men,
=30	=30	=30	=30	=30	=30
2.D	men,	(4g	A-	(4b	A-
.	.	4a	.	4dd	.
.	.	4b	.	4ee	.
=31	=31	=31	=31	=31	=31
2.G	A-	4a	.	4dd	.
.	.	4g	.	4b	.
.	.	[4a	.	[4dd	.
=32	=32	=32	=32	=32	=32
2.D	men,	4a],	.	4dd],	.
.	.	4g	.	4b	.
.	.	4a	.	4dd	.
=33	=33	=33	=33	=33	=33
[2.G	A	4b	.	4ee	.
.	.	4a	.	4dd	.
.	.	4g	.	4b	.
=34	=34	=34	=34	=34	=34
2.G]	.	4e	.	4a	.
.	.	2g)	.	2b)	.
=35	=35	=35	=35	=35	=35
2.D	men.	2.f#	men.	2.a	men.
==	==	==	==	==	==
*-	*-	*-	*-	*-	*-
!!!YOR: Bärenreiter-Ausgabe 676
!!!YOY: 1933
!!!EFL: 16/52
!!!URL-github: https://github.com/LucasHofmann/distler/blob/main/Jahrkreis/Distler_Jahrkreis_16_Also-hat-Gott-die-Welt-geliebt.krn
!!!URL-pdf: https://imslp.eu/files/imglnks/euimg/7/7d/IMSLP834545-PMLP518834-5-jahrkreis-EA--original-paper-600dpi.pdf#page=32 First edition, Kassel: Bärenreiter, 1933. Plate BA 676.
!!!URL-imslp: https://imslp.org/wiki/Der_Jahrkreis,_Op.5_(Distler,_Hugo)#IMSLP834545
!!!system-decoration: [(s1,s2,s3)]
!!!ENC: Lucas Hofmann
!!!END: 2023/10/18
!!!title: @{OPR@@DE}, Op. @{OPS}, Nr. @{ONM}. <i>@{OTL@@DE}</i>
